mimes/16/x-office-spreadsheet.svg

<?xml version="1.0" encoding="UTF-8" standalone="no"?>
<svg
   xmlns:dc="http://purl.org/dc/elements/1.1/"
   xmlns:cc="http://creativecommons.org/ns#"
   xmlns:rdf="http://www.w3.org/1999/02/22-rdf-syntax-ns#"
   xmlns:svg="http://www.w3.org/2000/svg"
   xmlns="http://www.w3.org/2000/svg"
   xmlns:xlink="http://www.w3.org/1999/xlink"
   version="1.1"
   width="16"
   height="16"
   id="svg3810">
  <defs
     id="defs3812">
    <linearGradient
       x1="23.99999"
       y1="5.5641499"
       x2="23.99999"
       y2="43"
       id="linearGradient3988"
       xlink:href="#linearGradient3977"
       gradientUnits="userSpaceOnUse"
       gradientTransform="matrix(0.24324324,0,0,0.35135133,2.1621636,-0.43242804)" />
    <linearGradient
       id="linearGradient3977">
      <stop
         id="stop3979"
         style="stop-color:#ffffff;stop-opacity:1"
         offset="0" />
      <stop
         id="stop3981"
         style="stop-color:#ffffff;stop-opacity:0.23529412"
         offset="0.03626217" />
      <stop
         id="stop3983"
         style="stop-color:#ffffff;stop-opacity:0.15686275"
         offset="0.95056331" />
      <stop
         id="stop3985"
         style="stop-color:#ffffff;stop-opacity:0.39215687"
         offset="1" />
    </linearGradient>
    <linearGradient
       id="linearGradient3600">
      <stop
         id="stop3602"
         style="stop-color:#f4f4f4;stop-opacity:1"
         offset="0" />
      <stop
         id="stop3604"
         style="stop-color:#dbdbdb;stop-opacity:1"
         offset="1" />
    </linearGradient>
    <linearGradient
       id="linearGradient3104">
      <stop
         id="stop3106"
         style="stop-color:#a0a0a0;stop-opacity:1"
         offset="0" />
      <stop
         id="stop3108"
         style="stop-color:#bebebe;stop-opacity:1"
         offset="1" />
    </linearGradient>
    <linearGradient
       x1="25.132275"
       y1="0.98520643"
       x2="25.132275"
       y2="47.013336"
       id="linearGradient3806"
       xlink:href="#linearGradient3600"
       gradientUnits="userSpaceOnUse"
       gradientTransform="matrix(0.31428714,0,0,0.3259265,0.457108,-0.32223804)" />
    <linearGradient
       x1="-51.786404"
       y1="50.786446"
       x2="-51.786404"
       y2="2.9062471"
       id="linearGradient3808"
       xlink:href="#linearGradient3104"
       gradientUnits="userSpaceOnUse"
       gradientTransform="matrix(0.25378586,0,0,0.30501865,19.128979,-0.68547704)" />
    <linearGradient
       id="linearGradient3522">
      <stop
         id="stop3524"
         style="stop-color:#a3c0d0;stop-opacity:1"
         offset="0" />
      <stop
         id="stop3526"
         style="stop-color:#5a8caa;stop-opacity:1"
         offset="1" />
    </linearGradient>
    <linearGradient
       x1="19.51465"
       y1="12.442631"
       x2="19.51465"
       y2="46.562195"
       id="linearGradient3092"
       xlink:href="#linearGradient3522"
       gradientUnits="userSpaceOnUse"
       gradientTransform="matrix(0.40401788,0,0,0.43300125,-0.30552101,-0.82357715)" />
    <linearGradient
       x1="19.51465"
       y1="12.442631"
       x2="19.51465"
       y2="46.562195"
       id="linearGradient3095"
       xlink:href="#linearGradient3522"
       gradientUnits="userSpaceOnUse"
       gradientTransform="matrix(0.3745426,0,0,0.5105348,0.11685726,-1.7541557)" />
    <radialGradient
       r="12.5"
       fy="15.03535"
       fx="11.789304"
       cy="15.03535"
       cx="11.789304"
       gradientTransform="matrix(0,2.9100034,-4.1330688,0,66.363061,-36.249087)"
       gradientUnits="userSpaceOnUse"
       id="radialGradient3267"
       xlink:href="#linearGradient3242-7-3-8-0-4-58-06-2-9" />
    <linearGradient
       id="linearGradient3242-7-3-8-0-4-58-06-2-9">
      <stop
         id="stop3244-5-8-5-6-4-3-8-7-0"
         style="stop-color:#cdf87e;stop-opacity:1"
         offset="0" />
      <stop
         id="stop3246-9-5-1-5-3-0-7-3-2"
         style="stop-color:#a2e34f;stop-opacity:1"
         offset="0.26238" />
      <stop
         id="stop3248-7-2-0-7-5-35-9-6-6"
         style="stop-color:#68b723;stop-opacity:1"
         offset="0.66093999" />
      <stop
         id="stop3250-8-2-8-5-6-40-4-0-8"
         style="stop-color:#1d7e0d;stop-opacity:1"
         offset="1" />
    </linearGradient>
    <linearGradient
       gradientTransform="matrix(0.0352071,0,0,0.00823529,-0.724852,18.980551)"
       gradientUnits="userSpaceOnUse"
       xlink:href="#linearGradient5048"
       id="linearGradient3080"
       y2="609.50507"
       x2="302.85715"
       y1="366.64789"
       x1="302.85715" />
    <radialGradient
       gradientTransform="matrix(-0.01204859,0,0,0.00823529,10.761206,18.980568)"
       gradientUnits="userSpaceOnUse"
       xlink:href="#linearGradient5060"
       id="radialGradient3077"
       fy="486.64789"
       fx="605.71429"
       r="117.14286"
       cy="486.64789"
       cx="605.71429" />
    <radialGradient
       gradientTransform="matrix(0.01204859,0,0,0.00823529,13.238794,18.980568)"
       gradientUnits="userSpaceOnUse"
       xlink:href="#linearGradient5060"
       id="radialGradient3074"
       fy="486.64789"
       fx="605.71429"
       r="117.14286"
       cy="486.64789"
       cx="605.71429" />
    <linearGradient
       gradientTransform="matrix(0.3922135,0,0,0.4473607,29.199293,-1.2386997)"
       gradientUnits="userSpaceOnUse"
       xlink:href="#linearGradient3104-52"
       id="linearGradient3071"
       y2="2.9062471"
       x2="-51.786404"
       y1="50.786446"
       x1="-51.786404" />
    <linearGradient
       gradientTransform="matrix(0.4857154,0,0,0.4780255,0.3428305,-0.7059501)"
       gradientUnits="userSpaceOnUse"
       xlink:href="#linearGradient3600-5"
       id="linearGradient3069"
       y2="47.013336"
       x2="25.132275"
       y1="0.98520643"
       x1="25.132275" />
    <linearGradient
       gradientTransform="matrix(0.4545444,0,0,0.4651153,1.0909339,0.33722927)"
       gradientUnits="userSpaceOnUse"
       xlink:href="#linearGradient3211"
       id="linearGradient3063"
       y2="46.01725"
       x2="24"
       y1="1.9999999"
       x1="24" />
    <linearGradient
       id="linearGradient3211">
      <stop
         offset="0"
         style="stop-color:#ffffff;stop-opacity:1"
         id="stop3213" />
      <stop
         offset="1"
         style="stop-color:#ffffff;stop-opacity:0"
         id="stop3215" />
    </linearGradient>
    <linearGradient
       id="linearGradient3600-5">
      <stop
         offset="0"
         style="stop-color:#f4f4f4;stop-opacity:1"
         id="stop3602-6" />
      <stop
         offset="1"
         style="stop-color:#dbdbdb;stop-opacity:1"
         id="stop3604-5" />
    </linearGradient>
    <linearGradient
       id="linearGradient3104-52">
      <stop
         offset="0"
         style="stop-color:#aaaaaa;stop-opacity:1"
         id="stop3106-5" />
      <stop
         offset="1"
         style="stop-color:#c8c8c8;stop-opacity:1"
         id="stop3108-3" />
    </linearGradient>
    <linearGradient
       id="linearGradient5060">
      <stop
         offset="0"
         style="stop-color:#000000;stop-opacity:1"
         id="stop5062" />
      <stop
         offset="1"
         style="stop-color:#000000;stop-opacity:0"
         id="stop5064" />
    </linearGradient>
    <linearGradient
       id="linearGradient5048">
      <stop
         offset="0"
         style="stop-color:#000000;stop-opacity:0"
         id="stop5050" />
      <stop
         offset="0.5"
         style="stop-color:#000000;stop-opacity:1"
         id="stop5056" />
      <stop
         offset="1"
         style="stop-color:#000000;stop-opacity:0"
         id="stop5052" />
    </linearGradient>
    <radialGradient
       xlink:href="#linearGradient3242-7-3-8-0-4-58-06-2-9"
       id="radialGradient3194"
       gradientUnits="userSpaceOnUse"
       gradientTransform="matrix(0,2.0396136,-2.7553792,0,44.275939,-25.594325)"
       cx="11.789304"
       cy="15.03535"
       fx="11.789304"
       fy="15.03535"
       r="12.5" />
    <linearGradient
       xlink:href="#linearGradient3211"
       id="linearGradient3197"
       gradientUnits="userSpaceOnUse"
       gradientTransform="matrix(0.4545444,0,0,0.4651153,-21.553134,-4.4763295)"
       x1="24"
       y1="1.9999999"
       x2="24"
       y2="46.01725" />
    <linearGradient
       xlink:href="#linearGradient3600-5"
       id="linearGradient3200"
       gradientUnits="userSpaceOnUse"
       gradientTransform="matrix(0.4857154,0,0,0.4780255,-22.301237,-5.5195089)"
       x1="25.132275"
       y1="0.98520643"
       x2="25.132275"
       y2="47.013336" />
    <linearGradient
       xlink:href="#linearGradient3104-52"
       id="linearGradient3202"
       gradientUnits="userSpaceOnUse"
       gradientTransform="matrix(0.3922135,0,0,0.4473607,6.555225,-6.0522585)"
       x1="-51.786404"
       y1="50.786446"
       x2="-51.786404"
       y2="2.9062471" />
    <radialGradient
       xlink:href="#linearGradient5060"
       id="radialGradient3205"
       gradientUnits="userSpaceOnUse"
       gradientTransform="matrix(0.01204859,0,0,0.00823529,-9.405274,14.167009)"
       cx="605.71429"
       cy="486.64789"
       fx="605.71429"
       fy="486.64789"
       r="117.14286" />
    <radialGradient
       xlink:href="#linearGradient5060"
       id="radialGradient3208"
       gradientUnits="userSpaceOnUse"
       gradientTransform="matrix(-0.01204859,0,0,0.00823529,-11.882862,14.167009)"
       cx="605.71429"
       cy="486.64789"
       fx="605.71429"
       fy="486.64789"
       r="117.14286" />
    <linearGradient
       xlink:href="#linearGradient5048"
       id="linearGradient3212"
       gradientUnits="userSpaceOnUse"
       gradientTransform="matrix(0.0352071,0,0,0.00823529,-23.36892,14.166992)"
       x1="302.85715"
       y1="366.64789"
       x2="302.85715"
       y2="609.50507" />
    <linearGradient
       xlink:href="#linearGradient3522"
       id="linearGradient3224"
       gradientUnits="userSpaceOnUse"
       gradientTransform="matrix(0.40401788,0,0,0.43300125,-0.30552101,-0.82357715)"
       x1="19.51465"
       y1="12.442631"
       x2="19.51465"
       y2="46.562195" />
    <linearGradient
       xlink:href="#linearGradient3977"
       id="linearGradient3230"
       gradientUnits="userSpaceOnUse"
       gradientTransform="matrix(0.24324324,0,0,0.35135133,2.1621636,-0.43242804)"
       x1="23.99999"
       y1="5.5641499"
       x2="23.99999"
       y2="43" />
    <linearGradient
       xlink:href="#linearGradient3600"
       id="linearGradient3233"
       gradientUnits="userSpaceOnUse"
       gradientTransform="matrix(0.31428714,0,0,0.3259265,0.457108,-0.32223804)"
       x1="25.132275"
       y1="0.98520643"
       x2="25.132275"
       y2="47.013336" />
    <linearGradient
       xlink:href="#linearGradient3104"
       id="linearGradient3235"
       gradientUnits="userSpaceOnUse"
       gradientTransform="matrix(0.25378586,0,0,0.30501865,19.128979,-0.68547704)"
       x1="-51.786404"
       y1="50.786446"
       x2="-51.786404"
       y2="2.9062471" />
    <linearGradient
       id="linearGradient3242-7-3-8-0-4-58-06-2-9-5">
      <stop
         id="stop3244-5-8-5-6-4-3-8-7-0-6"
         style="stop-color:#cdf87e;stop-opacity:1"
         offset="0" />
      <stop
         id="stop3246-9-5-1-5-3-0-7-3-2-1"
         style="stop-color:#a2e34f;stop-opacity:1"
         offset="0.26238" />
      <stop
         id="stop3248-7-2-0-7-5-35-9-6-6-8"
         style="stop-color:#68b723;stop-opacity:1"
         offset="0.66093999" />
      <stop
         id="stop3250-8-2-8-5-6-40-4-0-8-8"
         style="stop-color:#1d7e0d;stop-opacity:1"
         offset="1" />
    </linearGradient>
    <radialGradient
       r="12.5"
       fy="15.03535"
       fx="11.789304"
       cy="15.03535"
       cx="11.789304"
       gradientTransform="matrix(0,2.0396136,-2.7553792,0,44.275939,-25.594325)"
       gradientUnits="userSpaceOnUse"
       id="radialGradient3280"
       xlink:href="#linearGradient3242-7-3-8-0-4-58-06-2-9-5" />
    <radialGradient
       r="12.5"
       fy="15.03535"
       fx="11.789304"
       cy="15.03535"
       cx="11.789304"
       gradientTransform="matrix(0,2.0396136,-2.7553792,0,44.275939,-25.594325)"
       gradientUnits="userSpaceOnUse"
       id="radialGradient3280-7"
       xlink:href="#linearGradient3242-7-3-8-0-4-58-06-2-9-5-5" />
    <linearGradient
       id="linearGradient3242-7-3-8-0-4-58-06-2-9-5-5">
      <stop
         id="stop3244-5-8-5-6-4-3-8-7-0-6-4"
         style="stop-color:#cdf87e;stop-opacity:1"
         offset="0" />
      <stop
         id="stop3246-9-5-1-5-3-0-7-3-2-1-3"
         style="stop-color:#a2e34f;stop-opacity:1"
         offset="0.26238" />
      <stop
         id="stop3248-7-2-0-7-5-35-9-6-6-8-4"
         style="stop-color:#68b723;stop-opacity:1"
         offset="0.66093999" />
      <stop
         id="stop3250-8-2-8-5-6-40-4-0-8-8-0"
         style="stop-color:#1d7e0d;stop-opacity:1"
         offset="1" />
    </linearGradient>
  </defs>
  <metadata
     id="metadata3815">
    <rdf:RDF>
      <cc:Work
         rdf:about="">
        <dc:format>image/svg+xml</dc:format>
        <dc:type
           rdf:resource="http://purl.org/dc/dcmitype/StillImage" />
        <dc:title />
      </cc:Work>
    </rdf:RDF>
  </metadata>
  <path
     style="fill:url(#linearGradient3233);fill-opacity:1;stroke:url(#linearGradient3235);stroke-width:0.99992192;stroke-linecap:butt;stroke-linejoin:round;stroke-miterlimit:4;stroke-opacity:1;stroke-dasharray:none;stroke-dashoffset:0;display:inline"
     id="path4160"
     d="m 2.4999621,0.49997396 c 2.5206756,0 11.0000629,9.54e-4 11.0000629,9.54e-4 l 1.3e-5,14.99909804 c 0,0 -7.3333841,0 -11.0000759,0 0,-5.000017 0,-10.000035 0,-15.00005204 z" />
  <path
     style="fill:none;stroke:url(#linearGradient3230);stroke-width:1;stroke-linecap:round;stroke-linejoin:miter;stroke-miterlimit:4;stroke-opacity:1;stroke-dasharray:none;stroke-dashoffset:0"
     id="rect6741-1"
     d="m 12.5,14.5 -9.0000001,0 0,-13 L 12.5,1.5 z" />
  <path
     style="color:#000000;fill:url(#radialGradient3280-7);fill-opacity:1;fill-rule:nonzero;stroke:none;stroke-width:1;marker:none;visibility:visible;display:inline;overflow:visible;enable-background:accumulate"
     d="m 6.90625,2 0,3 L 12,5 12,2 z M 4,4.71875 4,14 7,14 7,4.71875 z"
     id="path6928" />
  <rect
     style="fill:#c4ec94;fill-opacity:1;stroke:none;display:inline;color:#000000;fill-rule:nonzero;stroke-width:1;marker:none;visibility:visible;overflow:visible;enable-background:accumulate"
     id="rect3775"
     y="2"
     x="4.0004902"
     height="3"
     width="3" />
  <path
     style="opacity:0.2;fill:#ffffff;fill-rule:evenodd;stroke:#ffffff;stroke-width:1;stroke-linecap:square;stroke-linejoin:round;stroke-miterlimit:4;stroke-opacity:1;stroke-dasharray:none;display:inline"
     id="path4743"
     d="M 4.500489,3.457239 11.409491,3.5" />
  <path
     id="path3156"
     style="color:#000000;fill:none;stroke:#305d2c;stroke-width:0.99999994;stroke-linecap:butt;stroke-linejoin:miter;stroke-miterlimit:4;stroke-opacity:0.3241762;stroke-dasharray:none;stroke-dashoffset:0;marker:none;visibility:visible;display:inline;overflow:visible;enable-background:accumulate"
     d="m 11,7.5000001 -6,0 M 11,11.5 l -6,0 m 6,-1.9999999 -6,0" />
  <path
     id="rect3580"
     style="fill:none;stroke:#0a3900;stroke-width:0.99999994000000003;stroke-linecap:round;stroke-linejoin:miter;stroke-miterlimit:4;stroke-dashoffset:0;stroke-opacity:1;display:inline;opacity:0.40000000000000002;color:#000000;stroke-dasharray:none;marker:none;visibility:visible;overflow:visible;enable-background:accumulate"
     d="m 4.5015697,2.4615657 6.9978393,0 0,10.9978393 -6.9978393,0 z M 6.5,2.5387453 6.5,13.5 m 4.725181,-8.9999999 -6.7392969,0" />
</svg>

<svg xmlns="http://www.w3.org/2000/svg" xmlns:xlink="http://www.w3.org/1999/xlink" viewBox="0 0 16 16"><defs><linearGradient id="a"><stop offset="0" stop-color="#fff"/><stop offset=".036" stop-color="#fff" stop-opacity=".235"/><stop offset=".951" stop-color="#fff" stop-opacity=".157"/><stop offset="1" stop-color="#fff" stop-opacity=".392"/></linearGradient><linearGradient id="b"><stop offset="0" stop-color="#f4f4f4"/><stop offset="1" stop-color="#dbdbdb"/></linearGradient><linearGradient id="c"><stop offset="0" stop-color="#a0a0a0"/><stop offset="1" stop-color="#bebebe"/></linearGradient><linearGradient xlink:href="#a" id="g" gradientUnits="userSpaceOnUse" gradientTransform="matrix(.24324 0 0 .35135 2.162 -.432)" x1="24" y1="5.564" x2="24" y2="43"/><linearGradient xlink:href="#b" id="e" gradientUnits="userSpaceOnUse" gradientTransform="matrix(.3143 0 0 .32593 .457 -.322)" x1="25.132" y1=".985" x2="25.132" y2="47.013"/><linearGradient xlink:href="#c" id="f" gradientUnits="userSpaceOnUse" gradientTransform="matrix(.2538 0 0 .30502 19.13 -.685)" x1="-51.786" y1="50.786" x2="-51.786" y2="2.906"/><radialGradient r="12.5" fy="15.035" fx="11.789" cy="15.035" cx="11.789" gradientTransform="matrix(0 2.0396 -2.75538 0 44.276 -25.594)" gradientUnits="userSpaceOnUse" id="h" xlink:href="#d"/><linearGradient id="d"><stop offset="0" stop-color="#cdf87e"/><stop offset=".262" stop-color="#a2e34f"/><stop offset=".661" stop-color="#68b723"/><stop offset="1" stop-color="#1d7e0d"/></linearGradient></defs><path d="M2.5.5h11v15h-11V.5z" fill="url(#e)" stroke="url(#f)" stroke-linejoin="round"/><path d="M12.5 14.5h-9v-13h9z" fill="none" stroke="url(#g)" stroke-linecap="round"/><path d="M6.906 2v3H12V2zM4 4.72V14h3V4.72z" color="#000" fill="url(#h)" overflow="visible"/><path fill="#c4ec94" color="#000" overflow="visible" d="M4 2h3v3H4z"/><path d="M4.5 3.457l6.91.043" opacity=".2" fill="#fff" fill-rule="evenodd" stroke="#fff" stroke-linecap="square" stroke-linejoin="round"/><path d="M11 7.5H5m6 4H5m6-2H5" color="#000" fill="none" stroke="#305d2c" stroke-opacity=".324" overflow="visible"/><path d="M4.502 2.462H11.5V13.46h-7zM6.5 2.54V13.5m4.725-9h-6.74" fill="none" stroke="#0a3900" stroke-linecap="round" opacity=".4" color="#000" overflow="visible"/></svg>
